X:640
T:Elizabeth Kelly's
C:Chieftains
R:slip jig
D:Deiseal.
Z:id:hn-slipjig-1
M:9/8
K:Ador
A3 ABA AGE|A3 G2E DEG|A3 ABA AGE|G2A G2E DEG:|
|:c2A BAG AGE|c2A BGE DEG|c2A BAG AGE| G2A G2E DEG:|
